img/delete.svg

<svg fill="none" height="800" viewBox="0 0 24 24" width="800" xmlns="http://www.w3.org/2000/svg">
    <g fill="#ffffff">
        <path d="m19.3517 7.61665-3.9588-3.5629c-1.1278-1.01507-1.6917-1.52261-2.3837-1.78813l-.0092 2.73449c0 2.35702 0 3.53553.7322 4.26776.7323.73223 1.9108.73223 4.2678.73223h3.5801c-.3626-.70422-1.0117-1.28846-2.2284-2.38345z"/>
        <path clip-rule="evenodd"
              d="m10 22h4c3.7712 0 5.6569 0 6.8284-1.1716 1.1716-1.1715 1.1716-3.0572 1.1716-6.8284v-.4371c0-.8728 0-1.5285-.0426-2.0628h-3.9574-.0949c-1.0971.0001-2.0666.0002-2.8482-.1049-.8471-.1139-1.6941-.3754-2.3853-1.0667-.6913-.69124-.9528-1.53822-1.0667-2.38534-.1051-.78152-.105-1.75109-.1049-2.84819l.0092-2.8344c.0003-.08244.0074-.16398.0208-.24391-.4086-.01666-.8942-.01666-1.5002-.01666-3.79111 0-5.68665 0-6.85823 1.17157-1.17157 1.17158-1.17157 3.05719-1.17157 6.82843v4c0 3.7712 0 5.6569 1.17157 6.8284 1.17158 1.1716 3.05719 1.1716 6.82843 1.1716zm-4.53033-7.5303c.29289-.2929.76777-.2929 1.06066 0l.96967.9696.96967-.9696c.29289-.2929.76777-.2929 1.06066 0s.29289.7677 0 1.0606l-.96967.9697.96967.9697c.29289.2929.29289.7677 0 1.0606s-.76777.2929-1.06066 0l-.96967-.9696-.96967.9696c-.29289.2929-.76777.2929-1.06066 0s-.29289-.7677 0-1.0606l.96967-.9697-.96967-.9697c-.29289-.2929-.29289-.7677 0-1.0606z"
              fill-rule="evenodd"/>
    </g>
</svg>

<?xml version="1.0" encoding="utf-8"?><!-- Uploaded to: SVG Repo, www.svgrepo.com, Generator: SVG Repo Mixer Tools -->
<svg width="800px" height="800px" viewBox="0 0 24 24" fill="none" xmlns="http://www.w3.org/2000/svg">
    <path d="M19.3517 7.61665L15.3929 4.05375C14.2651 3.03868 13.7012 2.53114 13.0092 2.26562L13 5.00011C13 7.35713 13 8.53564 13.7322 9.26787C14.4645 10.0001 15.643 10.0001 18 10.0001H21.5801C21.2175 9.29588 20.5684 8.71164 19.3517 7.61665Z"
          fill="#FFFFFF"/>
    <path fill-rule="evenodd" clip-rule="evenodd"
          d="M10 22H14C17.7712 22 19.6569 22 20.8284 20.8284C22 19.6569 22 17.7712 22 14V13.5629C22 12.6901 22 12.0344 21.9574 11.5001H18L17.9051 11.5001C16.808 11.5002 15.8385 11.5003 15.0569 11.3952C14.2098 11.2813 13.3628 11.0198 12.6716 10.3285C11.9803 9.63726 11.7188 8.79028 11.6049 7.94316C11.4998 7.16164 11.4999 6.19207 11.5 5.09497L11.5092 2.26057C11.5095 2.17813 11.5166 2.09659 11.53 2.01666C11.1214 2 10.6358 2 10.0298 2C6.23869 2 4.34315 2 3.17157 3.17157C2 4.34315 2 6.22876 2 10V14C2 17.7712 2 19.6569 3.17157 20.8284C4.34315 22 6.22876 22 10 22ZM5.46967 14.4697C5.76256 14.1768 6.23744 14.1768 6.53033 14.4697L7.5 15.4393L8.46967 14.4697C8.76256 14.1768 9.23744 14.1768 9.53033 14.4697C9.82322 14.7626 9.82322 15.2374 9.53033 15.5303L8.56066 16.5L9.53033 17.4697C9.82322 17.7626 9.82322 18.2374 9.53033 18.5303C9.23744 18.8232 8.76256 18.8232 8.46967 18.5303L7.5 17.5607L6.53033 18.5303C6.23744 18.8232 5.76256 18.8232 5.46967 18.5303C5.17678 18.2374 5.17678 17.7626 5.46967 17.4697L6.43934 16.5L5.46967 15.5303C5.17678 15.2374 5.17678 14.7626 5.46967 14.4697Z"
          fill="#FFFFFF"/>
</svg>
